public/media/cursor_pointer.svg

<svg height="48" viewBox="0 0 45 48" width="45" xmlns="http://www.w3.org/2000/svg" xmlns:xlink="http://www.w3.org/1999/xlink"><filter id="a" height="250%" width="270%" x="-85%" y="-75%"><feOffset dx="0" dy="3" in="SourceAlpha" result="shadowOffsetOuter1"/><feGaussianBlur in="shadowOffsetOuter1" result="shadowBlurOuter1" stdDeviation="5"/><feColorMatrix in="shadowBlurOuter1" result="shadowMatrixOuter1" type="matrix" values="0 0 0 0 0   0 0 0 0 0   0 0 0 0 0  0 0 0 0.303074049 0"/><feMerge><feMergeNode in="shadowMatrixOuter1"/><feMergeNode in="SourceGraphic"/></feMerge></filter><g fill="none" fill-rule="evenodd" filter="url(#a)" transform="translate(8 5)"><path d="m23.8123506 12.6830281c.0336468.3146631.1611788-.8686474.6360322-1.6303759.8818706-1.4165379 4.0023357-1.69131413 4.1211847 1.415984.0526409 1.450885.0423298 1.3827449.0423298 2.3577573 0 1.1456396-.0255064 1.8353501-.0868304 2.6641107-.0656654.8858209-.2523506 2.8890283-.5236954 3.8645947-.1866852.6625653-.805894 2.1644168-1.4164198 3.0646413 0 0-2.3297664 2.7699217-2.5837451 4.0141705-.2545214 1.2464648-.1698619 1.2547745-.2225028 2.1400415-.0510128.883051.2626618 2.0475261.2626618 2.0475261s-1.7404055.2271336-2.6776304.0736799c-.8498519-.1384961-1.8994135-1.8658192-2.1707583-2.3893344-.3728278-.7273814-1.1700388-.5911013-1.4815426-.0520745-.4878779.84815-1.5390677 2.3721609-2.2809243 2.4668922-1.4522373.1861387-4.4609084.0653702-6.81401042.0437648 0 0 .40267568-2.2425286-.49601827-3.0086889-.66153861-.5755898-1.80172942-1.7372949-2.48226216-2.3500016l-1.80607093-2.0403243c-.61269654-.7944135-2.17509985-2.0580518-2.69879529-4.3953117-.46237153-2.0774413-.41570022-3.0945565.08031805-3.925533.50470132-.8437181 1.45440809-1.3029711 1.85274224-1.3849608.45368849-.0908535 1.50325014-.0842056 1.89941354.139604.48570718.2703444.68053274.3495641 1.06041545.8647696.4998171.6791848.65285556 1.0165612.46617035.2703443-.21599046-.8343004-.42818208-1.8818848-.88621209-3.4441206-.36034589-1.2342771-.74185666-1.9034902-1.01754297-2.7322507-.33918099-1.00825151-.65936784-1.59769084-1.07669613-2.61702201-.30336348-.72959737-.78852797-2.32230233-.99203656-3.19094977-.25886293-1.12569616.07163502-2.04531016.52966503-2.67297441.5470311-.75064877 2.08609876-1.08414734 2.94463368-.77779401.8075221.28807186 1.61721496 1.13732984 1.98841463 1.74615863.6251784 1.02154711.77821686 1.40268833 1.55589104 3.41752935.85419341 2.19876383 1.49022561 5.23570592 1.51356121 5.90104112.0531836-.8176809-.0526409-2.63031761.2946805-3.55436348.2545214-.67419893.7548812-1.30684904 1.4880548-1.5312127.6192088-.18890865 1.3491263-.25483279 1.9932989-.12187655.6761912.14403593 1.3930841.63818995 1.6600874 1.10575273.7863572 1.3827449.8010098 4.209727.8351993 4.0573813.1888559-.8331925.1524957-2.72338702.6148673-3.51004478.3071623-.51908332 1.0788668-.9866461 1.4945671-1.06143398.6360322-.11356679 1.4202186-.15012976 2.0898975-.01828148.5426896.10913491 1.2742352.76505236 1.4712315 1.07971546.4705119.76172846.7380578 2.91838948.8183759 3.67347008" fill="#fff"/><g fill="#000"><path d="m9.51958932 31.946947.88187058.0127416c.8628764.0166196 1.7404055.0315771 2.5457568.0315771 1.1011172 0 1.8809621-.0315771 2.3813219-.0952853.2735156-.0808817 1.0408786-.9511911 1.6812523-2.0630376.6251784-1.0791615 2.3086015-1.0780535 2.903932.0875295.4623715.8913608 1.2617533 1.8791149 1.5813974 1.9539027.4281821.0681401 1.0582447.0432108 1.5602326.0088638-.0656654-.4154883-.1161356-.9079803-.0890011-1.3578156l.0211649-.5456746c.0108538-.4703327.0255064-.7822259.2165331-1.7156895.2838267-1.3838528 2.3509313-3.8967258 2.7644608-4.38534.4786522-.7151937 1.0745254-2.1250839 1.2503568-2.7527481.237698-.8514739.4222125-2.7256029.4938475-3.6983994.0596959-.8093711.0852023-1.4824621.0852023-2.6009565v-.4027466c.0021707-.5822375.0021707-.7268274-.0423298-1.9239876-.0510128-1.3489518-.7445701-1.6325918-1.3187357-1.6325918-.5258662 0-1.0750681.2653585-1.3019123.6309881-.220332.355104-.3625167.8991166-.4363224 1.1921743-.0743485.284748-.2268443.8752953-.8693888.8752953h-.0043415c-.4129867-.001108-.7755034-.3711695-.8221747-.7916436-.1676911-1.5855032-.449347-2.91949747-.6973561-3.32113612-.1275321-.19888037-.6848743-.65647143-.9393957-.70854596-.5660252-.10802695-1.2465579-.07644984-1.793589.02271336-.1969964.03490101-.7586801.36895356-.9366823.671983-.2056793.34734817-.2946804 1.33621022-.3560043 1.98991172-.0445006.4996939-.0911719.9595009-.1633496 1.2780419-.0846596.3761553-.4157002.6487156-.7950402.6487156-.5090429 0-.788528-.3407003-.8351993-1.0137913-.1123367-1.6758026-.347864-2.84138566-.7016976-3.4624021-.1253613-.21826983-.6230077-.60384293-1.1211967-.70965393-.496561-.10082515-1.0728973-.0531825-1.5949647.10525702-.5828486.17727499-.867218.78222588-.9621886 1.03318078-.2013379.53681082-.2121917 1.67580263-.2208747 2.43088323-.0021707.3434703-.0059696.6481617-.0211649.8797272-.0271345.4415255-.4238405.7390151-.8243455.776132-.4325236-.0066478-.7847291-.3595358-.8015525-.8021693-.0189941-.529055-.61486727-3.46018616-1.45603612-5.62404897-.78907066-2.04087829-.9117185-2.33836787-1.4902256-3.28291116-.31584534-.51963731-1.00289035-1.20214601-1.56674482-1.40213435-.12101978-.04376477-.29033893-.06758609-.47702415-.06758609-.68270349 0-1.35021168.28807185-1.54557993.55620027-.29468044.40385458-.59967199 1.07472961-.39019381 1.98769579.18668522.7955215.6615386 2.36329717.9480787 3.05577759.14815426.3606438.28165589.66367323.40864526.95008313.24421031.54955246.46237152 1.04647641.68921577 1.72289129.10582447.3157711.22684424.6043969.35600436.9140741.21219163.5129895.44554815 1.0752836.6723924 1.8503077.31964416 1.0946731.52315276 1.9411611.68867308 2.6391814l.20350859.8298685c.10202564.4066245.19699632.7855498-.07434847 1.1400998-.15249577.2022043-.40050491.3257428-.65068481.3257428-.45151773 0-.66316667-.2985976-.92854188-.6775229l-.2501799-.3479021c-.2393261-.3246349-.31584533-.3672917-.67836197-.56728-.18451446-.0963933-.46834111-.1601015-.92637112-.1601015-.2138197 0-.41298677.0127417-.5470311.0398869-.23715535.0487506-.96001787.4082865-1.31385148 1.0021577-.32235761.5406887-.4325236 1.2830277.01682337 3.3089484.36685816 1.6370237 1.32253452 2.688486 2.01989063 3.4568622.20567935.2282416.38802305.4293379.52586621.6077208l1.77025342 1.9976676c.25235065.2204857.66967894.6254483 1.0940622 1.0365046.47865221.463131.96218863.9345716 1.31222341 1.238709.79449755.6775229.90900505 1.9273115.87101678 2.8231042m.85202268 1.6752486-1.76157042-.0271452c-.24149687-.002216-.46617035-.1124588-.62083688-.3019215-.15303847-.1883547-.21653315-.4370936-.17420336-.6769688.14869695-.8381783.09551337-1.9566727-.21599045-2.2220312-.37337044-.3246348-.88187058-.8176809-1.38440113-1.3035251-.40701719-.3960988-.8075221-.7855498-1.11522709-1.061434l-1.87173638-2.1068024c-.15032501-.1927866-.30282078-.3589819-.47702414-.5495525-.77550341-.8547978-1.94608484-2.1466893-2.41008444-4.2174827-.50253055-2.2541623-.45368849-3.4851155.17800219-4.5437796.63386143-1.059218 1.79955865-1.6453334 2.38674878-1.766656.4791949-.0952853 1.49890863-.1722891 2.26844246.1384961-.09931219-.3789253-.21164894-.7944135-.34732133-1.2553285-.20567936-.7018982-.41787098-1.2104558-.61052578-1.6758026-.14652619-.3484562-.28002783-.674199-.39887685-1.027087-.20785011-.6165845-.40918794-1.07085169-.63169067-1.57497744-.13133088-.29970552-.27134479-.61713855-.42384057-.98941602-.32886988-.79053564-.82705892-2.43420716-1.03219558-3.31725819-.27785707-1.20103804-.03853096-2.39376631.66750818-3.36323889.85419341-1.1705689 2.78996715-1.44756107 3.86666328-1.06531188.99637808.35565794 1.9482556 1.33399428 2.41008444 2.09239883.65936784 1.07417563.82922968 1.49520372 1.62209914 3.5504856.2094782.5373648.4070172 1.13178999.5893609 1.732863.410816-.69414237 1.0153722-1.19439023 1.7170699-1.40822818.7733326-.2371053 1.6307821-.29804357 2.3872914-.14071202.8883829.18890866 1.8125832.81989681 2.202777 1.50185153.061324.11024288.1204771.22713357.1758315.34790216.4726826-.64040589 1.3377298-1.15616531 1.9227492-1.26142233.7293748-.13184827 1.6215564-.16674928 2.3867487-.01606555.8351993.16896523 1.734436 1.01933118 2.00361 1.44756107.2181612.35510396.3939926.89080681.5361773 1.49520371.5725375-.530163 1.3844011-.85147391 2.2196004-.85147391 1.3013696 0 2.8556326.84648801 2.9468044 3.23083661.0445006 1.239263.0445006 1.3893927.0423298 1.9921277v.3983147c0 1.1727849-.0255064 1.8780069-.0890011 2.7267109-.0341894.4647929-.2230454 2.8452636-.5535434 4.0291281-.2121916.7572966-.8628764 2.3272882-1.5282138 3.3100564-.9627313 1.1522874-2.3107723 2.9981632-2.4572985 3.711141-.1693191.8298686-.1736606 1.0387207-.1845144 1.415984-.0016281.1623174-.0059696.3495641-.022793.6049509-.0341894.6104907.1584654 1.4891099.2349846 1.7755198.0634947.2332274.0233357.4819663-.1058245.6819547-.1313308.2005423-.3413517.3334986-.5747082.3639677.0021707.001108-1.8994136.2376593-2.9104443.069248-1.3800596-.2243636-2.6244468-2.5560837-2.7601192-2.8214422-.5280369.7921976-1.7425762 2.6979037-2.9424629 2.8513574-.5785071.0736799-1.3990537.1085809-2.5848305.1085809-.8140343 0-1.7018745-.0166195-2.5756047-.0315771z"/><path d="m17.2960054 17.6492207c.4829938.0271452.8162052.3689536.8178332.8276526l.0341895 7.6942884c.0021707.458699-.3603459.8320845-.8096929.8343004h-.0043415c-.4471762 0-.8118636-.3700615-.8140344-.8276526l-.0336467-7.6942884c-.0021708-.458699.3603459-.8320845.8096928-.8343004zm4.4134231.0023267c.4493469 0 .8140343.3722775.8140343.8309765v7.6638193c0 .458699-.3646874.8309765-.8140343.8309765-.449347 0-.8140344-.3722775-.8140344-.8309765v-7.6638193c0-.458699.3646874-.8309765.8140344-.8309765zm-8.7090282.066035c.4471762 0 .8124063.3689535.8145771.8254366l.0466713 7.5934633c.0021707.458699-.3603459.8331924-.8102356.8365163h-.0043415c-.4471762 0-.8118636-.3689535-.8140344-.8254366l-.0466713-7.5934633c-.0021707-.458699.3603459-.8331924.8096929-.8365163z"/></g></g></svg>

<?xml version="1.0" encoding="UTF-8"?>
<svg width="45px" height="48px" viewBox="0 0 45 48" version="1.1" xmlns="http://www.w3.org/2000/svg" xmlns:xlink="http://www.w3.org/1999/xlink">
    <title>cursor_pointer</title>
    <defs>
        <filter x="-85.0%" y="-75.0%" width="270.0%" height="250.0%" filterUnits="objectBoundingBox" id="filter-1">
            <feOffset dx="0" dy="3" in="SourceAlpha" result="shadowOffsetOuter1"></feOffset>
            <feGaussianBlur stdDeviation="5" in="shadowOffsetOuter1" result="shadowBlurOuter1"></feGaussianBlur>
            <feColorMatrix values="0 0 0 0 0   0 0 0 0 0   0 0 0 0 0  0 0 0 0.303074049 0" type="matrix" in="shadowBlurOuter1" result="shadowMatrixOuter1"></feColorMatrix>
            <feMerge>
                <feMergeNode in="shadowMatrixOuter1"></feMergeNode>
                <feMergeNode in="SourceGraphic"></feMergeNode>
            </feMerge>
        </filter>
    </defs>
    <g id="cursor_pointer" stroke="none" stroke-width="1" fill="none" fill-rule="evenodd">
        <g id="pointer" filter="url(#filter-1)" transform="translate(8.000000, 5.000000)">
            <path d="M23.8123506,12.6830281 C23.8459974,12.9976912 23.9735294,11.8143807 24.4483828,11.0526522 C25.3302534,9.6361143 28.4507185,9.36133807 28.5695675,12.4686362 C28.6222084,13.9195212 28.6118973,13.8513811 28.6118973,14.8263935 C28.6118973,15.9720331 28.5863909,16.6617436 28.5250669,17.4905042 C28.4594015,18.3763251 28.2727163,20.3795325 28.0013715,21.3550989 C27.8146863,22.0176642 27.1954775,23.5195157 26.5849517,24.4197402 C26.5849517,24.4197402 24.2551853,27.1896619 24.0012066,28.4339107 C23.7466852,29.6803755 23.8313447,29.6886852 23.7787038,30.5739522 C23.727691,31.4570032 24.0413656,32.6214783 24.0413656,32.6214783 C24.0413656,32.6214783 22.3009601,32.8486119 21.3637352,32.6951582 C20.5138833,32.5566621 19.4643217,30.829339 19.1929769,30.3058238 C18.8201491,29.5784424 18.0229381,29.7147225 17.7114343,30.2537493 C17.2235564,31.1018993 16.1723666,32.6259102 15.43051,32.7206415 C13.9782727,32.9067802 10.9696016,32.7860117 8.61649958,32.7644063 C8.61649958,32.7644063 9.01917526,30.5218777 8.12048131,29.7557174 C7.4589427,29.1801276 6.31875189,28.0184225 5.63821915,27.4057158 L3.83214822,25.3653915 C3.21945168,24.570978 1.65704837,23.3073397 1.13335293,20.9700798 C0.6709814,18.8926385 0.717652705,17.8755233 1.21367098,17.0445468 C1.7183723,16.2008287 2.66807907,15.7415757 3.06641322,15.659586 C3.52010171,15.5687325 4.56966336,15.5753804 4.96582676,15.79919 C5.45153394,16.0695344 5.6463595,16.1487541 6.02624221,16.6639596 C6.52605931,17.3431444 6.67909777,17.6805208 6.49241256,16.9343039 C6.2764221,16.1000035 6.06423048,15.0524191 5.60620047,13.4901833 C5.24585458,12.2559062 4.86434381,11.5866931 4.5886575,10.7579326 C4.24947651,9.74968109 3.92928966,9.16024176 3.51196137,8.14091059 C3.20859789,7.41131322 2.7234334,5.81860826 2.51992481,4.94996082 C2.26106188,3.82426466 2.59155983,2.90465066 3.04958984,2.27698641 C3.59662094,1.52633764 5.1356886,1.19283907 5.99422352,1.4991924 C6.80174562,1.78726426 7.61143848,2.63652224 7.98263815,3.24535103 C8.60781655,4.26689814 8.76085501,4.64803936 9.53852919,6.66288038 C10.3927226,8.86164421 11.0287548,11.8985863 11.0520904,12.5639215 C11.105274,11.7462406 10.9994495,9.93360389 11.3467709,9.00955802 C11.6012923,8.33535909 12.1016521,7.70270898 12.8348257,7.47834532 C13.4540345,7.28943667 14.183952,7.22351253 14.8281246,7.35646877 C15.5043158,7.5005047 16.2212087,7.99465872 16.488212,8.4622215 C17.2745692,9.8449664 17.2892218,12.6719485 17.3234113,12.5196028 C17.5122672,11.6864103 17.475907,9.79621578 17.9382786,9.00955802 C18.2454409,8.4904747 19.0171454,8.02291192 19.4328457,7.94812404 C20.0688779,7.83455725 20.8530643,7.79799428 21.5227432,7.92984256 C22.0654328,8.03897747 22.7969784,8.69489492 22.9939747,9.00955802 C23.4644866,9.77128648 23.7320325,11.9279475 23.8123506,12.6830281" id="hand-fill" fill="#FFFFFF"></path>
            <path d="M9.51958932,31.946947 L10.4014599,31.9596886 C11.2643363,31.9763082 12.1418654,31.9912657 12.9472167,31.9912657 C14.0483339,31.9912657 14.8281788,31.9596886 15.3285386,31.8959804 C15.6020542,31.8150987 16.3694172,30.9447893 17.0097909,29.8329428 C17.6349693,28.7537813 19.3183924,28.7548893 19.9137229,29.9204723 C20.3760944,30.8118331 21.1754762,31.7995872 21.4951203,31.874375 C21.9233024,31.9425151 22.553365,31.9175858 23.0553529,31.8832388 C22.9896875,31.4677505 22.9392173,30.9752585 22.9663518,30.5254232 L22.9875167,29.9797486 C22.9983705,29.5094159 23.0130231,29.1975227 23.2040498,28.2640591 C23.4878765,26.8802063 25.5549811,24.3673333 25.9685106,23.8787191 C26.4471628,23.1635254 27.043036,21.7536352 27.2188674,21.125971 C27.4565654,20.2744971 27.6410799,18.4003681 27.7127149,17.4275716 C27.7724108,16.6182005 27.7979172,15.9451095 27.7979172,14.8266151 L27.7979172,14.4238685 C27.8000879,13.841631 27.8000879,13.6970411 27.7555874,12.4998809 C27.7045746,11.1509291 27.0110173,10.8672891 26.4368517,10.8672891 C25.9109855,10.8672891 25.3617836,11.1326476 25.1349394,11.4982772 C24.9146074,11.8533812 24.7724227,12.3973938 24.698617,12.6904515 C24.6242685,12.9751995 24.4717727,13.5657468 23.8292282,13.5657468 L23.8248867,13.5657468 C23.4119,13.5646388 23.0493833,13.1945773 23.002712,12.7741032 C22.8350209,11.1886 22.553365,9.85460573 22.3053559,9.45296708 C22.1778238,9.25408671 21.6204816,8.79649565 21.3659602,8.74442112 C20.799935,8.63639417 20.1194023,8.66797128 19.5723712,8.76713448 C19.3753748,8.80203549 18.8136911,9.13608804 18.6356889,9.43911748 C18.4300096,9.78646565 18.3410085,10.7753277 18.2796846,11.4290292 C18.235184,11.9287231 18.1885127,12.3885301 18.116335,12.7070711 C18.0316754,13.0832264 17.7006348,13.3557867 17.3212948,13.3557867 C16.8122519,13.3557867 16.5327668,13.0150864 16.4860955,12.3419954 C16.3737588,10.6661928 16.1382315,9.50060974 15.7843979,8.8795933 C15.6590366,8.66132347 15.1613902,8.27575037 14.6632012,8.16993937 C14.1666402,8.06911422 13.5903039,8.11675687 13.0682365,8.27519639 C12.4853879,8.45247138 12.2010185,9.05742227 12.1060479,9.30837717 C11.90471,9.84518799 11.8938562,10.9841798 11.8851732,11.7392604 C11.8830025,12.0827307 11.8792036,12.3874221 11.8640083,12.6189876 C11.8368738,13.0605131 11.4401678,13.3580027 11.0396628,13.3951196 C10.6071392,13.3884718 10.2549337,13.0355838 10.2381103,12.5929503 C10.2191162,12.0638953 9.62324303,9.13276414 8.78207418,6.96890133 C7.99300352,4.92802304 7.87035568,4.63053346 7.29184858,3.68599017 C6.97600324,3.16635286 6.28895823,2.48384416 5.72510376,2.28385582 C5.60408398,2.24009105 5.43476483,2.21626973 5.24807961,2.21626973 C4.56537612,2.21626973 3.89786793,2.50434158 3.70249968,2.77247 C3.40781924,3.17632458 3.10282769,3.84719961 3.31230587,4.76016579 C3.49899109,5.55568729 3.97384447,7.12346296 4.26038457,7.81594338 C4.40853883,8.17658718 4.54204046,8.47961661 4.66902983,8.76602651 C4.91324014,9.31557897 5.13140135,9.81250292 5.3582456,10.4889178 C5.46407007,10.8046889 5.58508984,11.0933147 5.71424996,11.4029919 C5.92644159,11.9159814 6.15979811,12.4782755 6.38664236,13.2532996 C6.70628652,14.3479727 6.90979512,15.1944607 7.07531544,15.892481 L7.27882403,16.7223495 C7.38084967,17.128974 7.47582035,17.5078993 7.20447556,17.8624493 C7.05197979,18.0646536 6.80397065,18.1881921 6.55379075,18.1881921 C6.10227302,18.1881921 5.89062408,17.8895945 5.62524887,17.5106692 L5.37506897,17.1627671 C5.13574287,16.8381322 5.05922364,16.7954754 4.696707,16.5954871 C4.51219254,16.4990938 4.22836589,16.4353856 3.77033588,16.4353856 C3.55651618,16.4353856 3.35734911,16.4481273 3.22330478,16.4752725 C2.98614943,16.5240231 2.26328691,16.883559 1.9094533,17.4774302 C1.58709569,18.0181189 1.4769297,18.7604579 1.92627667,20.7863786 C2.29313483,22.4234023 3.24881119,23.4748646 3.9461673,24.2432408 C4.15184665,24.4714824 4.33419035,24.6725787 4.47203351,24.8509616 L6.24228693,26.8486292 C6.49463758,27.0691149 6.91196587,27.4740775 7.33634913,27.8851338 C7.81500134,28.3482648 8.29853776,28.8197054 8.64857254,29.1238428 C9.44307009,29.8013657 9.55757759,31.0511543 9.51958932,31.946947 M10.371612,33.6221956 L8.61004158,33.5950504 C8.36854471,33.5928344 8.14387123,33.4825916 7.9892047,33.2931289 C7.83616623,33.1047742 7.77267155,32.8560353 7.81500134,32.6161601 C7.96369829,31.7779818 7.91051471,30.6594874 7.59901089,30.3941289 C7.22564045,30.0694941 6.71714031,29.576448 6.21460976,29.0906038 C5.80759257,28.694505 5.40708766,28.305054 5.09938267,28.0291698 L3.22764629,25.9223674 C3.07732128,25.7295808 2.92482551,25.5633855 2.75062215,25.3728149 C1.97511874,24.5180171 0.804537307,23.2261256 0.340537713,21.1553322 C-0.161992841,18.9011699 -0.113150778,17.6702167 0.518539897,16.6115526 C1.15240133,15.5523346 2.31809855,14.9662192 2.90528868,14.8448966 C3.38448358,14.7496113 4.40419731,14.6726075 5.17373114,14.9833927 C5.07441895,14.6044674 4.9620822,14.1889792 4.82640981,13.7280642 C4.62073045,13.026166 4.40853883,12.5176084 4.21588403,12.0522616 C4.06935784,11.7038054 3.9358562,11.3780626 3.81700718,11.0251746 C3.60915707,10.4085901 3.40781924,9.95432291 3.18531651,9.45019716 C3.05398563,9.15049164 2.91397172,8.83305861 2.76147594,8.46078114 C2.43260606,7.6702455 1.93441702,6.02657398 1.72928036,5.14352295 C1.45142329,3.94248491 1.6907494,2.74975664 2.39678854,1.78028406 C3.25098195,0.609715158 5.18675569,0.332722991 6.26345182,0.714972182 C7.2598299,1.07063012 8.21170742,2.04896646 8.67353626,2.80737101 C9.3329041,3.88154664 9.50276594,4.30257473 10.2956354,6.35785661 C10.5051136,6.89522141 10.7026526,7.4896466 10.8849963,8.09071961 C11.2958123,7.39657724 11.9003685,6.89632938 12.6020662,6.68249143 C13.3753988,6.44538613 14.2328483,6.38444786 14.9893576,6.54177941 C15.8777405,6.73068807 16.8019408,7.36167622 17.1921346,8.04363094 C17.2534586,8.15387382 17.3126117,8.27076451 17.3679661,8.3915331 C17.8406487,7.75112721 18.7056959,7.23536779 19.2907153,7.13011077 C20.0200901,6.9982625 20.9122717,6.96336149 21.677464,7.11404522 C22.5126633,7.28301045 23.4119,8.1333764 23.681074,8.56160629 C23.8992352,8.91671025 24.0750666,9.4524131 24.2172513,10.05681 C24.7897888,9.526647 25.6016524,9.20533609 26.4368517,9.20533609 C27.7382213,9.20533609 29.2924843,10.0518241 29.3836561,12.4361727 C29.4281567,13.6754357 29.4281567,13.8255654 29.4259859,14.4283004 L29.4259859,14.8266151 C29.4259859,15.9994 29.4004795,16.704622 29.3369848,17.553326 C29.3027954,18.0181189 29.1139394,20.3985896 28.7834414,21.5824541 C28.5712498,22.3397507 27.920565,23.9097423 27.2552276,24.8925105 C26.2924963,26.0447979 24.9444553,27.8906737 24.7979291,28.6036515 C24.62861,29.4335201 24.6242685,29.6423722 24.6134147,30.0196355 C24.6117866,30.1819529 24.6074451,30.3691996 24.5906217,30.6245864 C24.5564323,31.2350771 24.7490871,32.1136963 24.8256063,32.4001062 C24.889101,32.6333336 24.848942,32.8820725 24.7197818,33.0820609 C24.588451,33.2826032 24.3784301,33.4155595 24.1450736,33.4460286 C24.1472443,33.4471366 22.24566,33.6836879 21.2346293,33.5152766 C19.8545697,33.290913 18.6101825,30.9591929 18.4745101,30.6938344 C17.9464732,31.486032 16.7319339,33.3917381 15.5320472,33.5451918 C14.9535401,33.6188717 14.1329935,33.6537727 12.9472167,33.6537727 C12.1331824,33.6537727 11.2453422,33.6371532 10.371612,33.6221956 Z" id="hand-outline" fill="#000000"></path>
            <path d="M17.2960054,17.6492207 C17.7789992,17.6763659 18.1122106,18.0181743 18.1138386,18.4768733 L18.1480281,26.1711617 C18.1501988,26.6298607 17.7876822,27.0032462 17.3383352,27.0054621 L17.3339937,27.0054621 C16.8868175,27.0054621 16.5221301,26.6354006 16.5199593,26.1778095 L16.4863126,18.4835211 C16.4841418,18.0248221 16.8466585,17.6514366 17.2960054,17.6492207 Z M21.7094285,17.6515474 C22.1587754,17.6515474 22.5234628,18.0238249 22.5234628,18.4825239 L22.5234628,26.1463432 C22.5234628,26.6050422 22.1587754,26.9773197 21.7094285,26.9773197 C21.2600815,26.9773197 20.8953941,26.6050422 20.8953941,26.1463432 L20.8953941,18.4825239 C20.8953941,18.0238249 21.2600815,17.6515474 21.7094285,17.6515474 Z M13.0004003,17.7175824 C13.4475765,17.7175824 13.8128066,18.0865359 13.8149774,18.543019 L13.8616487,26.1364823 C13.8638194,26.5951813 13.5013028,26.9696747 13.0514131,26.9729986 L13.0470716,26.9729986 C12.5998954,26.9729986 12.235208,26.6040451 12.2330372,26.147562 L12.1863659,18.5540987 C12.1841952,18.0953997 12.5467118,17.7209063 12.9960588,17.7175824 L13.0004003,17.7175824 Z" id="stripes" fill="#000000"></path>
        </g>
    </g>
</svg>
